images/ico-bicro-marche-presta.svg

<svg xmlns="http://www.w3.org/2000/svg" width="24" height="24" fill="none" viewBox="0 0 24 24"><g clip-path="url(#clip0_218:156)"><path fill="#fdd" d="M17.5434 13.7579C20.8571 13.7579 23.5434 11.0716 23.5434 7.75792C23.5434 4.44421 20.8571 1.75792 17.5434 1.75792C14.2297 1.75792 11.5434 4.44421 11.5434 7.75792C11.5434 11.0716 14.2297 13.7579 17.5434 13.7579Z"/><g clip-path="url(#clip1_218:156)"><path fill="#000638" d="M5.6 9.76V7.36C5.6 7.14782 5.68428 6.94434 5.83431 6.79431C5.98434 6.64428 6.18783 6.56 6.4 6.56H12.8C13.0122 6.56 13.2157 6.64428 13.3657 6.79431C13.5157 6.94434 13.6 7.14782 13.6 7.36V9.76H16.8C17.0122 9.76 17.2157 9.84428 17.3657 9.99431C17.5157 10.1443 17.6 10.3478 17.6 10.56V21.76C17.6 21.9722 17.5157 22.1757 17.3657 22.3257C17.2157 22.4757 17.0122 22.56 16.8 22.56H2.4C2.18783 22.56 1.98434 22.4757 1.83431 22.3257C1.68428 22.1757 1.6 21.9722 1.6 21.76V10.56C1.6 10.3478 1.68428 10.1443 1.83431 9.99431C1.98434 9.84428 2.18783 9.76 2.4 9.76H5.6ZM7.2 16.16H3.2V20.96H16V16.16H12V18.56H7.2V16.16ZM16 11.36H3.2V14.56H7.2V12.96H12V14.56H16V11.36ZM8.8 14.56V16.96H10.4V14.56H8.8ZM7.2 8.16V9.76H12V8.16H7.2Z"/></g></g><defs><clipPath id="clip0_218:156"><path fill="#fff" d="M0 0H24V24H0z"/></clipPath><clipPath id="clip1_218:156"><path fill="#fff" d="M0 0H19.2V19.2H0z" transform="translate(0 5.76)"/></clipPath></defs></svg>

<svg xmlns="http://www.w3.org/2000/svg" width="24" height="24" fill="none" viewBox="0 0 24 24"><g clip-path="url(#a)"><path fill="#FDD" d="M17.543 13.758a6 6 0 1 0 0-12 6 6 0 0 0 0 12"/><g clip-path="url(#b)"><path fill="#000638" d="M5.6 9.76v-2.4a.8.8 0 0 1 .8-.8h6.4a.8.8 0 0 1 .8.8v2.4h3.2a.8.8 0 0 1 .8.8v11.2a.8.8 0 0 1-.8.8H2.4a.8.8 0 0 1-.8-.8v-11.2a.8.8 0 0 1 .8-.8zm1.6 6.4h-4v4.8H16v-4.8h-4v2.4H7.2zm8.8-4.8H3.2v3.2h4v-1.6H12v1.6h4zm-7.2 3.2v2.4h1.6v-2.4zm-1.6-6.4v1.6H12v-1.6z"/></g></g><defs><clipPath id="a"><path fill="#fff" d="M0 0h24v24H0z"/></clipPath><clipPath id="b"><path fill="#fff" d="M0 5.76h19.2v19.2H0z"/></clipPath></defs></svg>
